outputs/icons/hardware/devices_ecosystem_sharp.svg

<svg xmlns="http://www.w3.org/2000/svg" width="1200" height="1200" fill="none"><g clip-path="url(#a)"><path fill="#000" d="M150 300h900V200H50v800h300V900H150zm500 300H450v89c-30.5 27.5-50 66.5-50 111s19.5 83.5 50 111v89h200v-89c30.5-27.5 50-67 50-111s-19.5-83.5-50-111zM550 875c-41.5 0-75-33.5-75-75s33.5-75 75-75 75 33.5 75 75-33.5 75-75 75m600-475H750v600h400zm-100 500H850V500h200z"/></g><defs><clipPath id="a"><path fill="#fff" d="M0 0h1200v1200H0z"/></clipPath></defs></svg>

<svg width="1200" height="1200" viewBox="0 0 1200 1200" fill="none" xmlns="http://www.w3.org/2000/svg"><g clip-path="url(#clip0_133_34)"><path d="M150 300H1050V200H50V1000H350V900H150V300ZM650 600H450V689C419.5 716.5 400 755.5 400 800C400 844.5 419.5 883.5 450 911V1000H650V911C680.5 883.5 700 844 700 800C700 756 680.5 716.5 650 689V600ZM550 875C508.5 875 475 841.5 475 800C475 758.5 508.5 725 550 725C591.5 725 625 758.5 625 800C625 841.5 591.5 875 550 875ZM1150 400H750V1000H1150V400ZM1050 900H850V500H1050V900Z" fill="#1D1E23"/></g><defs><clipPath id="clip0_133_34"><path width="24" fill="white" d="M0 0H1200V1200H0V0z"/></clipPath></defs></svg>
